logo/gatsby.svg

<?xml version="1.0" encoding="UTF-8"?>
<svg width="256px" height="256px" viewBox="0 0 256 256" version="1.1" xmlns="http://www.w3.org/2000/svg" xmlns:xlink="http://www.w3.org/1999/xlink" preserveAspectRatio="xMidYMid">
    <g>
        <path d="M128,0 C57.3075981,0 0,57.307374 0,128 C0,198.69285 57.3078221,256 128,256 C198.69285,256 256,198.692626 256,128 C256,57.307374 198.69285,0 128,0 Z M27.503973,129.334313 L126.665463,228.496027 C72.2144512,227.786305 28.2134711,183.785325 27.503973,129.334313 Z M150.496265,225.983324 L30.0166761,105.503735 C40.2328216,60.8232766 80.2223482,27.4871709 128,27.4871709 C161.397489,27.4871709 190.984927,43.7800881 209.262736,68.8464075 L195.346089,81.125855 C180.519662,59.8637627 155.886614,45.9486835 128,45.9486835 C92.4948508,45.9486835 62.259523,68.5011796 50.8311596,100.061636 L155.938588,205.169064 C181.463942,195.925651 201.095107,174.378594 207.669894,147.692325 L164.102633,147.692325 L164.102633,128.000224 L210.051317,128.000224 L210.051317,127.999776 L228.512829,127.999776 L228.512829,128 C228.512829,175.777652 195.176947,215.767178 150.496265,225.983324 Z" fill="#744C9E" fill-rule="nonzero"></path>
    </g>
</svg>

<svg viewBox="0 0 256 256" xmlns="http://www.w3.org/2000/svg"><path fill="#744C9E" d="M128 0C57.3 0 0 57.3 0 128c0 70.69 57.3 128 128 128 70.69 0 128-57.31 128-128C256 57.3 198.69 0 128 0ZM27.5 129.33l99.16 99.16c-54.46-.71-98.46-44.72-99.17-99.17Zm122.99 96.64L30.01 105.49c10.21-44.69 50.2-78.02 97.98-78.02 33.39 0 62.98 16.29 81.26 41.35l-13.92 12.27c-14.83-21.27-39.46-35.18-67.35-35.18 -35.51 0-65.75 22.55-77.17 54.11l105.1 105.1c25.52-9.25 45.15-30.8 51.73-57.48h-43.57v-19.7h45.94v-.01h18.46v0c0 47.77-33.34 87.76-78.02 97.98Z"/></svg>
